X:418
T:Lament for Sir Harry Lumsden, Bart. of Auchindoir
C:Wm. Marshall
R:Air
M:6/8
Q:"Slow and Pathetic" 1/8=104
K:Bb
U: N = !tenuto!
!mp!vB/uc/|\
{Bc}d>cB (F<DF)| ((B,<B)NB) B2 d/e/| f>ed (d<cB)| ((C<c)Nc) (c2c)|
!crescendo(!e2 (f3/4g//a//) {ga}b>ag!crescendo)!| (f<Bd) {/d}Hf2 !mp!e|{/e}d<cB (F<DF)|(G<B)B B2::
(uD/C/)|\
.B,.D.F .B.d.f| {=E}!turn!F>GF {/E}("_a tempo"F2NF)| {/F}(B2F) {/F}(d2B)| (Acd) {/d}(e2f)|
"_cresc."{/e}g>fe (def)|"_rit."g(ab) {/g}Hf2 !p!e| {/e}d>cB (F<DF)| (G<BB) B2:|
